X: 161533
T: Peeler's Pocket
T: P\'oc an Phil\'eara
S: B.Breathnach: "Ceol Rince na hEireann" II/204 
Z: B.Black
L: 1/8
M: 4/4
R: reel
K: G
ge|d2 BG cBce|d2 BG AF (3DEF|G2 BG ABcd|eAAA gfge|
d2 BG cBce|d2 BG AF (3DEF|G2 BG ABcd|ecAc BGBd ||
g2 dB GBdg|g2 fg edef|g2 dB GBdf|ecAc BG G2|
g2 (3fgf (3efe dB|cBAG FAdc|Bd (3ddd ce e2|dgfa g2 ||
